assets/images/close.svg

<svg fill="none" height="15" viewBox="0 0 15 15" width="15" xmlns="http://www.w3.org/2000/svg"><path d="m14.9614 2.29806-1.41-1.409998-5.58997 5.589998-5.59-5.589998-1.410004 1.409998 5.590004 5.59-5.590004 5.59004 1.410004 1.41 5.59-5.59004 5.58997 5.59004 1.41-1.41-5.58997-5.59004z" fill="#000"/></svg>

<svg width="15" height="15" viewBox="0 0 15 15" fill="none" xmlns="http://www.w3.org/2000/svg">
<path d="M14.9614 2.29806L13.5514 0.888062L7.96143 6.47806L2.37143 0.888062L0.961426 2.29806L6.55143 7.88806L0.961426 13.4781L2.37143 14.8881L7.96143 9.29806L13.5514 14.8881L14.9614 13.4781L9.37143 7.88806L14.9614 2.29806Z" fill="black"/>
</svg>
